svg/furkot/icons8/cemetery.svg

<svg viewBox="0 0 512 512" xmlns="http://www.w3.org/2000/svg"><path d="m451.938 494.277v17.723h-391.876v-17.723c0-11.815 9.846-21.662 21.661-21.662h348.554c11.815 0 21.661 9.847 21.661 21.662zm-332.8-41.354-19.692-368.246c0-13.785 11.816-25.6 25.6-25.6h21.662c21.661-21.662 57.107-59.077 108.307-59.077 53.17 0 86.647 37.415 108.308 59.077h25.6c13.785 0 25.6 11.815 25.6 25.6l-19.692 368.246zm59.077-295.385h157.539v-19.692h-157.539zm0 59.077h157.539v-19.692h-157.539z"/></svg>

<svg xmlns="http://www.w3.org/2000/svg" viewBox="0 0 512 512"><path d="M451.938 494.277V512H60.062V494.277C60.062 482.462 69.908 472.615 81.723 472.615H430.277C442.092 472.615 451.938 482.462 451.938 494.277ZM119.138 452.923L99.446 84.677C99.446 70.892 111.262 59.077 125.046 59.077H146.708C168.369 37.415 203.815 0 255.015 0 308.185 0 341.662 37.415 363.323 59.077H388.923L388.923 59.077C402.708 59.077 414.523 70.892 414.523 84.677L394.831 452.923H119.138ZM178.215 157.538H335.754V137.846H178.215V157.538ZM178.215 216.615H335.754V196.923H178.215V216.615Z"/></svg>
